Hatter-kde/actions/24/keyframe-record.svg

<svg xmlns="http://www.w3.org/2000/svg" version="1.1" viewBox="0 0 24 24" width="24" height="24">
  <defs>
    <style id="current-color-scheme" type="text/css">.ColorScheme-Text {
        color:#363636;
      }
      .ColorScheme-NegativeText {
            color:#da4453;
        }</style>
  </defs>
  <g transform="translate(1,1)">
    <path style="fill:currentColor;fill-opacity:1;stroke:none" d="m17 15.5a3.5 3.5 0 0 1-3.5 3.5 3.5 3.5 0 0 1-3.5-3.5 3.5 3.5 0 0 1 3.5-3.5 3.5 3.5 0 0 1 3.5 3.5z" class="ColorScheme-NegativeText"/>
    <path style="fill:currentColor;fill-opacity:1;stroke:none" d="m 7,3 v 1 h 3 V 6.0253906 C 6.654686,6.283393 4,9.0908726 4,12.5 c 0,3.578006 2.9219938,6.5 6.5,6.5 0.05475,0 0.107678,-0.0065 0.162109,-0.0078 A 4.4999997,4.4999997 0 0 1 9.71875,17.9375 C 7.0520257,17.557441 5,15.271759 5,12.5 5,9.4624339 7.4624339,7 10.5,7 c 2.771759,0 5.057441,2.0520257 5.4375,4.71875 a 4.4999997,4.4999997 0 0 1 1.054688,0.945312 C 16.99358,12.608981 17,12.555405 17,12.5 17,10.890075 16.402982,9.4176934 15.425781,8.28125 L 16.501953,7.2050781 17.300781,8 18.005859,7.2910156 15.707031,5.0019531 15.001953,5.7109375 15.792969,6.5 14.71875,7.5742188 C 13.700098,6.7020862 12.413238,6.1343845 11,6.0253906 V 4 h 3 V 3 Z" class="ColorScheme-Text"/>
  </g>
</svg>

<?xml version="1.0" encoding="UTF-8"?>
<svg width="24" height="24" version="1.1" viewBox="0 0 24 24" xmlns="http://www.w3.org/2000/svg">
 <defs>
  <style id="current-color-scheme" type="text/css">.ColorScheme-Text {
        color:#363636;
      }
      .ColorScheme-NegativeText {
            color:#da4453;
        }</style>
 </defs>
 <g transform="translate(1,1)" fill="currentColor">
  <path class="ColorScheme-NegativeText" d="m17 15.5a3.5 3.5 0 0 1-3.5 3.5 3.5 3.5 0 0 1-3.5-3.5 3.5 3.5 0 0 1 3.5-3.5 3.5 3.5 0 0 1 3.5 3.5z"/>
  <path class="ColorScheme-Text" d="m7 3v1h3v2.0254c-3.3453 0.258-6 3.0655-6 6.4746 0 3.578 2.922 6.5 6.5 6.5 0.05475 0 0.10768-0.0065 0.16211-0.0078a4.5 4.5 0 0 1-0.94336-1.0547c-2.6667-0.38006-4.7188-2.6657-4.7188-5.4375 0-3.0376 2.4624-5.5 5.5-5.5 2.7718 0 5.0574 2.052 5.4375 4.7188a4.5 4.5 0 0 1 1.0547 0.94531c0.001392-0.055081 0.007812-0.10866 0.007812-0.16406 0-1.6099-0.59702-3.0823-1.5742-4.2188l1.0762-1.0762 0.79883 0.79492 0.70508-0.70898-2.2988-2.2891-0.70508 0.70898 0.79102 0.78906-1.0742 1.0742c-1.0187-0.87213-2.3055-1.4398-3.7188-1.5488v-2.0254h3v-1z"/>
 </g>
</svg>
